components/ui-node-icon/src/union/union.large.svg

<svg width="32" height="32" viewBox="0 0 32 32" fill="none" xmlns="http://www.w3.org/2000/svg">
  <path fill-rule="evenodd" clip-rule="evenodd" d="M15.6746 13.1204C15.8619 12.9599 16.1382 12.9599 16.3254 13.1204L19.8254 16.1204C20.0351 16.3001 20.0593 16.6157 19.8796 16.8254C19.6999 17.0351 19.3843 17.0593 19.1746 16.8796L17 15.0157V20H25C26.6569 20 28 21.3431 28 23V26C28 27.6569 26.6569 29 25 29H7C5.34315 29 4 27.6569 4 26V23C4 21.3431 5.34315 20 7 20H15V15.0157L12.8254 16.8796C12.6157 17.0593 12.3001 17.0351 12.1204 16.8254C11.9407 16.6157 11.965 16.3001 12.1746 16.1204L15.6746 13.1204Z" fill="var(--tbl--colors--icons--transformation--primary)"/>
  <rect x="4" y="3" width="24" height="9" rx="3" fill="var(--tbl--colors--icons--transformation--tertiary)"/>
</svg>

<svg xmlns="http://www.w3.org/2000/svg" width="32" height="32" fill="none" viewBox="0 0 32 32">
  <path fill="var(--tbl--colors--icons--transformation--primary)" fill-rule="evenodd" d="M15.675 13.12a.5.5 0 0 1 .65 0l3.5 3a.5.5 0 1 1-.65.76L17 15.016V20h8a3 3 0 0 1 3 3v3a3 3 0 0 1-3 3H7a3 3 0 0 1-3-3v-3a3 3 0 0 1 3-3h8v-4.984l-2.175 1.864a.5.5 0 1 1-.65-.76l3.5-3Z" clip-rule="evenodd"/>
  <rect width="24" height="9" x="4" y="3" fill="var(--tbl--colors--icons--transformation--tertiary)" rx="3"/>
</svg>
